24x24/actions/realization.svg

<svg xmlns="http://www.w3.org/2000/svg" viewBox="0 0 24 24" width="24" height="24">
  <defs id="defs3051">
    <style type="text/css" id="current-color-scheme">
      .ColorScheme-Text {
        color:#555e70;
      }
      </style>
  </defs>
  <g transform="translate(1,1)">
    <path style="fill:currentColor;fill-opacity:1;stroke:none" d="M 10.5 3 L 7 10 L 8 10 L 8.1171875 10 L 10 10 L 10 13 L 11 13 L 11 10 L 12.882812 10 L 13 10 L 14 10 L 10.5 3 z M 10.5 5.2363281 L 12.382812 9 L 8.6171875 9 L 10.5 5.2363281 z M 10 14 L 10 16 L 11 16 L 11 14 L 10 14 z M 10 17 L 10 19 L 11 19 L 11 17 L 10 17 z " class="ColorScheme-Text"/>
    <path style="fill:currentColor;fill-opacity:0.5;stroke:none" d="M 10.5 5.2363281 L 8.1171875 10 L 12.882812 10 L 10.5 5.2363281 z " class="ColorScheme-Text"/>
  </g>
</svg>

<svg xmlns="http://www.w3.org/2000/svg" width="24" height="24"><defs id="defs3051"><style type="text/css" id="current-color-scheme">.ColorScheme-Text{color:#555e70}</style></defs><path style="fill:currentColor;fill-opacity:1;stroke:none" d="M10.5 3 7 10h3v3h1v-3h3l-3.5-7zm0 2.236L12.383 9H8.617L10.5 5.236zM10 14v2h1v-2h-1zm0 3v2h1v-2h-1z" class="ColorScheme-Text" transform="translate(1 1)"/><path style="fill:currentColor;fill-opacity:.5;stroke:none" d="M10.5 5.236 8.117 10h4.766L10.5 5.236z" class="ColorScheme-Text" transform="translate(1 1)"/></svg>
